X:54
T:Polska
S:Carol Turner
R:Polska
O:Sweden
M:3/4
L:1/8
K:A
E-|EE c2 cB-|BA Bd c2| e g2 f df | e2 Bd c2| \
   AA c2 ce-|ed Bd c2| Bd cA BG  | EA A2 z::
   a2 gb a2 |g2 fa g2| fd fa gf  | feBd c2| \
   Bc de fa |gb a2 e2-|e f2 d cA|BG EA A2:|
